img/icon-phone-black.svg

<svg width="128" height="128" viewBox="0 0 128 128" fill="none" xmlns="http://www.w3.org/2000/svg">
<path d="M96.1511 84.6354C92.1031 80.5858 87.141 80.5858 83.0929 84.6354C80.0895 87.7401 76.9555 90.8448 73.9521 94.0845C73.1686 94.8944 72.3852 95.1644 71.4711 94.6245C69.5124 93.5446 67.423 92.5997 65.4643 91.3848C56.5846 85.5803 49.1414 78.1561 42.6123 69.9219C39.3478 65.7373 36.475 61.2827 34.3856 56.4232C33.9939 55.4783 33.9939 54.8033 34.908 53.9934C37.9114 50.8887 40.9148 47.784 43.9181 44.6793C48.0968 40.3597 48.0968 35.2302 43.9181 30.9106C41.5677 28.4809 39.0866 25.9161 36.7361 23.4863C34.255 20.9216 31.774 18.3568 29.293 15.7921C25.2449 11.7425 20.2828 11.7425 16.2347 15.7921C13.1007 18.8968 10.2279 22.1365 7.09395 25.2412C4.22114 28.0759 2.78468 31.5856 2.39293 35.6352C1.8706 42.2495 3.43759 48.4589 5.65749 54.5333C10.2279 67.0871 17.0182 78.291 25.3755 88.5501C36.6056 102.454 50.0556 113.388 65.8561 121.217C72.9075 124.727 80.3507 127.561 88.3162 127.966C93.8007 128.236 98.6323 126.886 102.419 122.432C105.031 119.462 108.034 116.627 110.776 113.793C114.824 109.473 114.955 104.344 110.776 100.024C105.945 94.7595 100.983 89.63 96.1511 84.6354Z" fill="#000001"/>
<path d="M91.1871 63.4426L100.72 61.8228C99.2832 52.7786 95.1046 44.6794 88.8367 38.2C82.1769 31.3157 73.9502 27.1311 64.6789 25.7812L63.373 35.6353C70.4245 36.7152 76.9536 39.9549 82.0463 45.2194C86.8779 50.2139 90.0119 56.5583 91.1871 63.4426Z" fill="#000001"/>
<path d="M105.944 20.9128C94.9755 9.57387 81.1338 2.41956 65.8556 0.259766L64.5498 10.1138C77.7387 12.0036 89.7523 18.213 99.1542 27.9321C108.164 37.2462 114.041 48.8551 116.13 61.8138L125.662 60.194C123.181 45.2104 116.391 31.5767 105.944 20.9128Z" fill="#000001"/>
</svg>

<svg width="128" height="128" fill="none" xmlns="http://www.w3.org/2000/svg"><path d="M96.151 84.635c-4.048-4.05-9.01-4.05-13.058 0-3.004 3.105-6.138 6.21-9.14 9.45-.784.81-1.568 1.08-2.482.54-1.959-1.08-4.048-2.025-6.007-3.24-8.88-5.805-16.323-13.229-22.852-21.463-3.264-4.185-6.137-8.64-8.226-13.499-.392-.945-.392-1.62.522-2.43l9.01-9.314c4.179-4.32 4.179-9.449 0-13.768l-7.182-7.425-7.443-7.694c-4.048-4.05-9.01-4.05-13.058 0-3.134 3.105-6.007 6.345-9.141 9.45-2.873 2.834-4.31 6.344-4.701 10.393C1.87 42.25 3.438 48.46 5.657 54.533c4.57 12.554 11.361 23.758 19.718 34.017 11.23 13.904 24.68 24.838 40.481 32.667 7.052 3.51 14.495 6.344 22.46 6.749 5.485.27 10.316-1.08 14.103-5.534 2.612-2.97 5.615-5.805 8.357-8.639 4.048-4.32 4.179-9.449 0-13.769-4.831-5.264-9.793-10.394-14.625-15.389zM91.187 63.443l9.533-1.62c-1.437-9.044-5.615-17.144-11.883-23.623-6.66-6.884-14.887-11.069-24.158-12.419l-1.306 9.854c7.051 1.08 13.58 4.32 18.673 9.584 4.832 4.995 7.966 11.34 9.141 18.224zM105.944 20.913C94.975 9.573 81.134 2.42 65.856.26l-1.306 9.854c13.189 1.89 25.202 8.099 34.604 17.818 9.01 9.314 14.887 20.923 16.976 33.882l9.532-1.62c-2.481-14.984-9.271-28.617-19.718-39.281z" fill="#000001"/></svg>
